X:1
T:In dulci Jubilo BWV 368
T:J. S. Bach
T:In dulci Jubilo BWV 368
C:J. S. Bach
%%score [ 1 2 3 4 ]
L:1/8
M:3/4
K:F
V:1 treble nm="SOPRANO" snm="S."
V:2 treble nm="ALTO" snm="A."
V:3 treble-8 transpose=-12 nm="TENOR" snm="T."
V:4 bass nm="BASS" snm="B."
V:1
 F2 | F4 F2 | A4 B2 | c4 d2 | c6 | F4 F2 | A4 B2 | c4 d2 | c6 | c4 d2 | c4 B2 | A3 B AG | F4 F2 | %13
w: In|dul- ci|ju- bi-|lo _|_|sin- get|und seid|frob _|_|un- sers|Her- zens|Won _ _ _|ne, liegt|
 G4 G2 | A4 G2 | F4 G2 | A6 | c4 d2 | c4 B2 | A3 B AG | F4 F2 | G4 G2 | A4 G2 | F4 G2 | A6 | %25
w: in prae-|se- pi-|o _|_|leuch- tet|als die|Son _ _ _|ne ma-|tris in|pre- mi-|o _|_|
 D4 D2 | E4 E2 | FE FG AB | c6 | A4 A2 | G4 G2 | F6 | F6 |] %33
w: Al- pha|es et|O _ _ _ _ _|_|Al- pha|es et|O|_|
V:2
 C2 | D4 D2 | E4 E2 | F6 | F6 | F2 E2 D2 | C4 D2 | C2 E2 G2 | E6 | F4 F2 | E2 F2 G2 | ^C2 D2 E2 | %12
 A,4 F2- | F2 ED E2 | F4 E2 | F3 G FE | F6 | F4 F2 | G2 F2 G2 | G2 F2 E2 | D4 F2- | F2 ED E2 | %22
 F4 E2- | E2 A,2 D2 | ^C6 | D4 D2- | D2 CD E2- | E2 D4 | C6 | C2 FE F2 | F4 E2 | F_E DC DB, | C6 |] %33
V:3
 A2 | A4 B2 | c4 B2 | A4 B2 | A6 | A4 B2 | A2 G2 F2 | G2 c2 =B2 | G6 | A4 B2 | c2 d2 e2 | %11
 A2 =B2 ^c2 | d4 c2 | d2 B2 c2 | c6 | c2 A2 c2 | c6 | A4 B2 | G4 e2 | e2 d2 ^c2 | A4 c2 | %21
 d2 B2 c2 | c4 c2 | A4 B2 | E6 | z F GA BA | G2 AB cB | A3 G F2 | G6 | A2 B2 c2 | d2 B2 c2 | %31
 c2 BA BG | A6 |] %33
V:4
 F,2 | D,2 C,2 B,,2 | A,,2 B,,A,, G,,A,, | F,,F, _E,D, C,B,, | F,6 | D,2 C,2 B,,2 | F,2 E,2 D,2 | %7
 E,2 C,2 G,,2 | C,6 | F,4 B,2 | B,2 A,2 G,2 | G,2 F,2 E,2 | D,4 A,,2 | B,,2 G,,2 C,2 | %14
 F,,G,, A,,B,, C,B,, | A,,2 F,,2 C,,2 | F,,6 | F,2 E,2 D,2 | E,2 D,2 C,2 | F,G, A,2 A,,2 | %20
 D,4 A,,2 | B,,2 G,,2 C,2 | F,,G,, A,,B,, C,A,, | D,2 C,2 B,,2 | A,,6 | B,,2 A,,2 G,,2 | %26
 C,2 B,,2 A,,2 | D,C, D,E, F,D, | E,6 | F,,2 G,,2 A,,2 | B,,2 G,,2 C,2 | A,,2 B,,4 | F,,6 |] %33

